X: 155
T:Marcha de Procesión (2)
M:6/8
L:1/16
Q:250
C:Trad
R:Marcha
K:C
cBcGEF G3ECE | DEFDB,D CDEFG2 | cBcGEF G3ECE |
DEFDB,D C6 :||: DB,DB,DF EGECEG | FDB,DGE GEFDC2|
DB,DB,DF EGECEG | FDB,DFE GEFDC2 :||: D4F2E4G2|
F4A2G4E2 | D4F2E4G2 | A2GEFD C6 :||

